flaticon/dialogue/chat-46.svg

<svg xmlns="http://www.w3.org/2000/svg" width="32" height="32" viewBox="0 0 24 24">
    <path d="M 22.9375 0.71875 L 6.261719 0.71875 C 5.675781 0.71875 5.199219 1.191406 5.199219 1.777344 L 5.199219 4.71875 L 1.0625 4.71875 C 0.476562 4.71875 0 5.191406 0 5.777344 L 0 23.28125 L 3.765625 19.515625 L 17.738281 19.515625 C 18.324219 19.515625 18.800781 19.042969 18.800781 18.457031 L 18.800781 15.515625 L 22.9375 15.515625 C 23.523438 15.515625 24 15.042969 24 14.457031 L 24 1.777344 C 24 1.191406 23.523438 0.71875 22.9375 0.71875 Z M 18 18.457031 C 18 18.601562 17.882812 18.71875 17.738281 18.71875 L 3.433594 18.71875 L 0.800781 21.351562 L 0.800781 5.777344 C 0.800781 5.632812 0.917969 5.515625 1.0625 5.515625 L 17.738281 5.515625 C 17.882812 5.515625 18 5.632812 18 5.777344 Z M 23.199219 14.457031 C 23.199219 14.601562 23.082031 14.71875 22.9375 14.71875 L 18.800781 14.71875 L 18.800781 5.777344 C 18.800781 5.191406 18.324219 4.71875 17.738281 4.71875 L 6 4.71875 L 6 1.777344 C 6 1.632812 6.117188 1.515625 6.261719 1.515625 L 22.9375 1.515625 C 23.082031 1.515625 23.199219 1.632812 23.199219 1.777344 Z M 23.199219 14.457031"/>
    <path d="M4 10.710938C3.117188 10.710938 2.398438 11.429688 2.398438 12.3125 2.398438 13.191406 3.117188 13.910156 4 13.910156 4.882812 13.910156 5.601562 13.191406 5.601562 12.3125 5.601562 11.429688 4.882812 10.710938 4 10.710938zM4 13.109375C3.558594 13.109375 3.199219 12.753906 3.199219 12.3125 3.199219 11.871094 3.558594 11.511719 4 11.511719 4.441406 11.511719 4.800781 11.871094 4.800781 12.3125 4.800781 12.753906 4.441406 13.109375 4 13.109375zM9.199219 10.710938C8.316406 10.710938 7.601562 11.429688 7.601562 12.3125 7.601562 13.191406 8.316406 13.910156 9.199219 13.910156 10.082031 13.910156 10.800781 13.191406 10.800781 12.3125 10.800781 11.429688 10.082031 10.710938 9.199219 10.710938zM9.199219 13.109375C8.757812 13.109375 8.398438 12.753906 8.398438 12.3125 8.398438 11.871094 8.757812 11.511719 9.199219 11.511719 9.640625 11.511719 10 11.871094 10 12.3125 10 12.753906 9.640625 13.109375 9.199219 13.109375zM14.398438 10.710938C13.519531 10.710938 12.800781 11.429688 12.800781 12.3125 12.800781 13.191406 13.519531 13.910156 14.398438 13.910156 15.28125 13.910156 16 13.191406 16 12.3125 16 11.429688 15.28125 10.710938 14.398438 10.710938zM14.398438 13.109375C13.957031 13.109375 13.601562 12.753906 13.601562 12.3125 13.601562 11.871094 13.957031 11.511719 14.398438 11.511719 14.839844 11.511719 15.199219 11.871094 15.199219 12.3125 15.199219 12.753906 14.839844 13.109375 14.398438 13.109375zM14.398438 13.109375"/>
</svg>

<svg xmlns="http://www.w3.org/2000/svg" width="32" height="32" viewBox="0 0 24 24">
    <path d="M22.938.719H6.262a1.06 1.06 0 0 0-1.063 1.058V4.72H1.063A1.06 1.06 0 0 0 0 5.777v17.504l3.766-3.765h13.972a1.06 1.06 0 0 0 1.063-1.059v-2.941h4.137A1.06 1.06 0 0 0 24 14.457V1.777A1.06 1.06 0 0 0 22.937.72zM18 18.457a.262.262 0 0 1-.262.262H3.434L.8 21.352V5.777c0-.144.117-.261.261-.261h16.676c.145 0 .262.117.262.261zm5.2-4a.262.262 0 0 1-.262.262H18.8V5.777a1.06 1.06 0 0 0-1.063-1.058H6V1.777c0-.144.117-.261.262-.261h16.675c.145 0 .262.117.262.261zm0 0"/>
    <path d="M4 10.71c-.883 0-1.602.72-1.602 1.602a1.603 1.603 0 0 0 3.203 0c0-.882-.718-1.601-1.601-1.601zm0 2.4a.799.799 0 1 1 0-1.598.799.799 0 0 1 0 1.598zm0 0M9.2 10.71a1.6 1.6 0 0 0 0 3.2c.882 0 1.6-.719 1.6-1.598 0-.882-.718-1.601-1.6-1.601zm0 2.4a.799.799 0 1 1 0-1.598.799.799 0 0 1 0 1.598zm0 0M14.398 10.71c-.878 0-1.597.72-1.597 1.602 0 .88.719 1.598 1.597 1.598.883 0 1.602-.719 1.602-1.598 0-.882-.719-1.601-1.602-1.601zm0 2.4a.799.799 0 1 1 .8-.797c.001.44-.358.796-.8.796zm0 0"/>
</svg>
